Papirus/22x22/panel/copy-sync3.svg

<?xml version="1.0" encoding="UTF-8" standalone="no"?>
<svg xmlns:dc="http://purl.org/dc/elements/1.1/" xmlns:cc="http://creativecommons.org/ns#" xmlns:rdf="http://www.w3.org/1999/02/22-rdf-syntax-ns#" xmlns:svg="http://www.w3.org/2000/svg" xmlns="http://www.w3.org/2000/svg" id="svg2" x="0px" y="0px" version="1.1" width="22" viewBox="0 0 22 22" height="22" xml:space="preserve" enable-background="new 0 0 24 24">
    <metadata id="metadata14">
        <rdf:RDF>
            <cc:Work rdf:about="">
                <dc:format>
                    image/svg+xml
                </dc:format>
                <dc:type rdf:resource="http://purl.org/dc/dcmitype/StillImage"/>
                <dc:title/>
            </cc:Work>
        </rdf:RDF>
    </metadata>
    <path id="path6" d="M 19.634766 2.0253906 L 14.017578 8.84375 L 16 10 L 20 2.3515625 L 19.634766 2.0253906 z M 5 6.5 L 1 10 L 5.375 9.375 L 7 19 L 10.392578 16.699219 L 11.269531 16.955078 C 10.905518 15.905041 10.935139 14.73496 11.410156 13.669922 L 9.7480469 15.091797 L 6.5 7 L 5 6.5 z M 12 9.0292969 L 9 10 L 10 13 L 13.228516 10.578125 A 1.0001357 1.0001357 0 0 1 13.708984 9.859375 L 12 9.0292969 z M 15.21875 9.71875 L 15.601562 11.142578 C 14.733933 11.370137 13.950617 11.915318 13.46875 12.75 C 12.592171 14.268204 13.003241 16.178997 14.341797 17.236328 L 15.101562 15.921875 C 14.461426 15.298191 14.29778 14.313679 14.767578 13.5 C 15.046318 13.017204 15.491183 12.703648 15.984375 12.574219 L 16.316406 13.816406 L 17.03125 12.578125 L 17.791016 11.261719 L 17.816406 11.21875 L 15.21875 9.71875 z M 18.658203 11.761719 L 17.898438 13.078125 C 18.538298 13.701834 18.702136 14.686488 18.232422 15.5 C 17.953723 15.982712 17.508851 16.296344 17.015625 16.425781 L 16.683594 15.183594 L 15.183594 17.78125 L 17.78125 19.28125 L 17.398438 17.855469 C 18.266067 17.627909 19.049383 17.084682 19.53125 16.25 C 20.407828 14.731796 19.996759 12.81905 18.658203 11.761719 z M 19.333984 17.837891 C 19.039973 18.311908 18.658531 18.682411 18.228516 18.982422 L 20 19.5 L 19.333984 17.837891 z " style="fill:#ffffff;fill-opacity:1;opacity:1"/>
</svg>

<?xml version="1.0" encoding="UTF-8" standalone="no"?>
<svg id="svg2" xmlns:rdf="http://www.w3.org/1999/02/22-rdf-syntax-ns#" xmlns="http://www.w3.org/2000/svg" enable-background="new 0 0 24 24" xml:space="preserve" viewBox="0 0 22 22" width="22" version="1.1" y="0px" x="0px" xmlns:cc="http://creativecommons.org/ns#" height="22" xmlns:dc="http://purl.org/dc/elements/1.1/">
    <metadata id="metadata14">
        <rdf:RDF>
            <cc:Work rdf:about="">
                <dc:format>
                    image/svg+xml
                </dc:format>
                <dc:type rdf:resource="http://purl.org/dc/dcmitype/StillImage"/>
                <dc:title/>
            </cc:Work>
        </rdf:RDF>
    </metadata>
    <path id="path6" d="m19.635 2.0254l-5.617 6.8184 1.982 1.1562 4-7.6484-0.365-0.3262zm-14.635 4.4746l-4 3.5 4.375-0.625 1.625 9.625 3.393-2.301 0.877 0.256c-0.364-1.05-0.335-2.22 0.14-3.285l-1.662 1.422-3.248-8.092-1.5-0.5zm7 2.5293l-3 0.9707 1 3 3.229-2.422a1.0001 1.0001 0 0 1 0.48 -0.7186l-1.709-0.8301zm3.219 0.6895l0.383 1.4242c-0.868 0.227-1.651 0.772-2.133 1.607-0.877 1.518-0.466 3.429 0.873 4.486l0.76-1.314c-0.641-0.624-0.804-1.608-0.334-2.422 0.278-0.483 0.723-0.796 1.216-0.926l0.332 1.242 0.715-1.238 0.76-1.316 0.025-0.043-2.597-1.5002zm3.439 2.0432l-0.76 1.316c0.64 0.624 0.804 1.608 0.334 2.422-0.278 0.483-0.723 0.796-1.216 0.926l-0.332-1.242-1.5 2.597 2.597 1.5-0.383-1.426c0.868-0.227 1.651-0.77 2.133-1.605 0.877-1.518 0.466-3.431-0.873-4.488zm0.676 6.076c-0.294 0.474-0.675 0.844-1.105 1.144l1.771 0.518-0.666-1.662z" fill="#fff"/>
</svg>
